X:1
T:Title
%%score ( 1 2 ) { 3 | ( 4 5 ) }
L:1/8
Q:1/4=115
M:3/4
K:Ab
V:1 treble nm="Grand Piano, Unnamed-000"
V:2 treble 
V:3 bass nm="Choir Pad, Brownwell, 88.88.88"
V:4 bass 
V:5 bass 
V:1
 [CE]2 z2 E2 | [EA]2 A2 G2 | [EB]2 z2 B2 | [Ed]2 d2 c2 | [CE]2 A2 c2 | [_Gd]2 e2 dc | dB A2 c2 | %7
w: By~Franz~Joseph~Haydn~(1732\-1809) *|||||||
 [DB]2 [CA]4 | [CA]2 A2 G2 | [B,F]2 E4 | E2 E2 B2 | [B,D]2 [A,C]4 | [A,D]2 [A,E]2 E2 | %13
w: ||||||
 [=DA]2 [EG]4 | BA [EG]4 | [=DF]2 E4 | [Ge]2 e2 d2 | [EB]2 d2 c2 | [EA]2 A2 G2 | [EA]2 [EB]4 | %20
w: |||||||
 E2 A2 c2 | [_Ge]2 e2 dc | dB A2 c2 | [EB]2 [EA]4- | [EA]4 z2 |] %25
w: |||||
V:2
 z2 C4 | z2 E4 | z2 E4 | z2 E4 | z2 E4 | z2 F4 | F2 E4 | x6 | z2 D4 | x6 | z2 D4 | x6 | x6 | x6 | %14
 F2 z2 z2 | x6 | z2 A4 | z2 E4 | z2 E4 | x6 | z2 E4 | z2 F4 | F2 E4 | x6 | x6 |] %25
V:3
 E,2 A,4 | A,2 B,4 | G,2 B,4 | G,2 A,4 | A,2 A,4 | A,2 A,2 B,2 | B,D C2 A,2 | G,2 A,4 | E,2 E,4 | %9
 G,2 A,4 | C2 B,2 E,2 | E,2 E,4 | E,2 A,4 | A,2 B,4 | C2 B,4 | A,2 G,4 | B,2 A,4 | B,2 A,4 | %18
 A,2 D4 | C2 B,2 G,2 | B,2 A,4 | A,2 A,2 B,2 | B,[K:treble]D C2 E2 | D2 C4- | C4 z2 |] %25
V:4
 A,,2 A,,4 | C,2 E,4 | E,2 G,4 | E,2 z2 z2 | A,,2 C,4 | A,,2 D,4 | D,2 E,4 | E,2 A,,4 | A,,2 B,,4 | %9
 D,2 C,4 | A,,2 G,,4 | G,,2 A,,4 | B,,2 C,4 | F,2 E,4 | A,,2 B,,4 | B,,2 E,4 | E,2 F,4 | %17
 G,2 z2 z2 | C,2 B,,4 | A,,2 G,,2 E,2 | D,2 C,4 | A,,2 D,4 | D,2 z2 A,2 | [E,G,]2 [A,,A,]4- | %24
 [A,,A,]4 z2 |] %25
V:5
 x6 | x6 | x6 | x6 | x6 | x6 | x6 | x6 | x6 | x6 | x6 | x6 | x6 | x6 | x6 | x6 | x6 | x6 | x6 | %19
 x6 | x6 | x6 | z2 E,4 | x6 | x6 |] %25

